src/lib/packages/icons/src/assets/line/arrow-down-from-line.svg

<svg width="24" height="24" viewBox="0 0 24 24" fill="none" xmlns="http://www.w3.org/2000/svg">
<path d="M17.53 15.47C17.823 15.763 17.823 16.238 17.53 16.531L12.53 21.531C12.461 21.6 12.3781 21.6551 12.2871 21.6931C12.1961 21.7311 12.098 21.751 12 21.751C11.902 21.751 11.8049 21.7311 11.7129 21.6931C11.6209 21.6551 11.539 21.6 11.47 21.531L6.46997 16.531C6.17697 16.238 6.17697 15.763 6.46997 15.47C6.76297 15.177 7.23801 15.177 7.53101 15.47L11.251 19.1899V7C11.251 6.586 11.587 6.25 12.001 6.25C12.415 6.25 12.751 6.586 12.751 7V19.189L16.4709 15.469C16.7629 15.177 17.237 15.177 17.53 15.47ZM18 2.25H6C5.586 2.25 5.25 2.586 5.25 3C5.25 3.414 5.586 3.75 6 3.75H18C18.414 3.75 18.75 3.414 18.75 3C18.75 2.586 18.414 2.25 18 2.25Z" fill="currentColor"/>
</svg>

<svg xmlns="http://www.w3.org/2000/svg" width="24" height="24" fill="none"><path fill="currentColor" d="M17.53 15.47a.75.75 0 0 1 0 1.061l-5 5a.755.755 0 0 1-.817.162.745.745 0 0 1-.243-.162l-5-5a.75.75 0 1 1 1.061-1.061l3.72 3.72V7a.75.75 0 0 1 1.5 0v12.189l3.72-3.72a.749.749 0 0 1 1.059.001ZM18 2.25H6a.75.75 0 0 0 0 1.5h12a.75.75 0 0 0 0-1.5Z"/></svg>
